X:7418
T:The Torn Jacket
O:england
M:4/4
L:1/8
C:Connie O'Connell
R:reel
N:played in B flat on album, on tuned-down fiddle
D:The Smoky Chimney
K:D
F3 A d2 ed|cAAB cd e2|FEFA dfed|cAGE EDDE|
F3 A d2 ed|cAAB cdec|Adde f2 ed|cAGE EDDE:|
|:FAdf a2 fa|g3 a gfed|cAAB cdef|gfed cAAG|
FAdf a2 fa|g3 a gfef|g2 ba gfed|cAGE ED D2:|


